Newaita/actions/24/edit-table-insert-row-above.svg

<svg height="24" viewBox="0 0 24 24" width="24" xmlns="http://www.w3.org/2000/svg"><g fill="#424242"><path d="m8.433594 21.027344h.992187v-11.414063h-.992187zm0 0"/><path d="m14.386719 21.523438h.992187v-11.910157h-.992187zm0 0"/><path d="m1.984375 4.15625c0-1.097656.886719-1.984375 1.984375-1.984375v16.867187c0 .550782.441406.992188.992188.992188h13.890624c.550782 0 .992188-.441406.992188-.992188v-9.425781h1.988281v10.417969c0 1.101562-.886719 1.988281-1.988281 1.988281h-15.875c-1.097656 0-1.984375-.886719-1.984375-1.988281zm0 0"/><path d="m20.34375 15.566406v-.992187h-17.367188v.992187zm0 0"/></g><path d="m3.949219 4.136719v-1.945313c0-.011718.007812-.019531.019531-.019531h7.898438c.011718 0 .019531.007813.019531.019531v1.945313c0 .011719-.007813.019531-.019531.019531h-7.898438c-.011719 0-.019531-.007812-.019531-.019531zm0 0" fill="#f44336"/><path d="m3.96875 9.605469v-.992188h7.917969v.992188zm0 0" fill="#f44336"/><path d="m8.523438 2.90625.960937-.257812 1.796875 6.707031-.957031.257812zm0 0" fill="#f44336"/><path d="m4.976562 2.90625.957032-.257812 1.796875 6.707031-.957031.257812zm0 0" fill="#f44336"/><path d="m15.132812 5.644531c0 .273438.222657.496094.496094.496094h3.96875c.273438 0 .496094-.222656.496094-.496094 0-.273437-.222656-.496093-.496094-.496093h-3.96875c-.273437 0-.496094.222656-.496094.496093zm0 0" fill="#424242"/><path d="m17.613281 8.125c.273438 0 .496094-.222656.496094-.496094v-3.96875c0-.273437-.222656-.496094-.496094-.496094-.273437 0-.496093.222657-.496093.496094v3.96875c0 .273438.222656.496094.496093.496094zm0 0" fill="#424242"/></svg>

<svg xmlns="http://www.w3.org/2000/svg" xmlns:xlink="http://www.w3.org/1999/xlink" width="24px" height="24px" viewBox="0 0 24 24" version="1.1">
<g id="surface1">
     <defs>
  <style id="current-color-scheme" type="text/css">
   .ColorScheme-Text { color:#424242; } .ColorScheme-Highlight { color:#eeeeee; }
  </style>
 </defs>
<path style="fill:currentColor" class="ColorScheme-Text" d="M 8.433594 21.027344 L 9.425781 21.027344 L 9.425781 9.613281 L 8.433594 9.613281 Z M 8.433594 21.027344 "/>
     <defs>
  <style id="current-color-scheme" type="text/css">
   .ColorScheme-Text { color:#424242; } .ColorScheme-Highlight { color:#eeeeee; }
  </style>
 </defs>
<path style="fill:currentColor" class="ColorScheme-Text" d="M 14.386719 21.523438 L 15.378906 21.523438 L 15.378906 9.613281 L 14.386719 9.613281 Z M 14.386719 21.523438 "/>
     <defs>
  <style id="current-color-scheme" type="text/css">
   .ColorScheme-Text { color:#424242; } .ColorScheme-Highlight { color:#eeeeee; }
  </style>
 </defs>
<path style="fill:currentColor" class="ColorScheme-Text" d="M 1.984375 4.15625 C 1.984375 3.058594 2.871094 2.171875 3.96875 2.171875 L 3.96875 19.039062 C 3.96875 19.589844 4.410156 20.03125 4.960938 20.03125 L 18.851562 20.03125 C 19.402344 20.03125 19.84375 19.589844 19.84375 19.039062 L 19.84375 9.613281 L 21.832031 9.613281 L 21.832031 20.03125 C 21.832031 21.132812 20.945312 22.019531 19.84375 22.019531 L 3.96875 22.019531 C 2.871094 22.019531 1.984375 21.132812 1.984375 20.03125 Z M 1.984375 4.15625 "/>
     <defs>
  <style id="current-color-scheme" type="text/css">
   .ColorScheme-Text { color:#424242; } .ColorScheme-Highlight { color:#eeeeee; }
  </style>
 </defs>
<path style="fill:currentColor" class="ColorScheme-Text" d="M 20.34375 15.566406 L 20.34375 14.574219 L 2.976562 14.574219 L 2.976562 15.566406 Z M 20.34375 15.566406 "/>
<path style=" stroke:none;fill-rule:nonzero;fill:rgb(95.686275%,26.274511%,21.176471%);fill-opacity:1;" d="M 3.949219 4.136719 L 3.949219 2.191406 C 3.949219 2.179688 3.957031 2.171875 3.96875 2.171875 L 11.867188 2.171875 C 11.878906 2.171875 11.886719 2.179688 11.886719 2.191406 L 11.886719 4.136719 C 11.886719 4.148438 11.878906 4.15625 11.867188 4.15625 L 3.96875 4.15625 C 3.957031 4.15625 3.949219 4.148438 3.949219 4.136719 Z M 3.949219 4.136719 "/>
<path style=" stroke:none;fill-rule:nonzero;fill:rgb(95.686275%,26.274511%,21.176471%);fill-opacity:1;" d="M 3.96875 9.605469 L 3.96875 8.613281 L 11.886719 8.613281 L 11.886719 9.605469 Z M 3.96875 9.605469 "/>
<path style=" stroke:none;fill-rule:nonzero;fill:rgb(95.686275%,26.274511%,21.176471%);fill-opacity:1;" d="M 8.523438 2.90625 L 9.484375 2.648438 L 11.28125 9.355469 L 10.324219 9.613281 Z M 8.523438 2.90625 "/>
<path style=" stroke:none;fill-rule:nonzero;fill:rgb(95.686275%,26.274511%,21.176471%);fill-opacity:1;" d="M 4.976562 2.90625 L 5.933594 2.648438 L 7.730469 9.355469 L 6.773438 9.613281 Z M 4.976562 2.90625 "/>
     <defs>
  <style id="current-color-scheme" type="text/css">
   .ColorScheme-Text { color:#424242; } .ColorScheme-Highlight { color:#eeeeee; }
  </style>
 </defs>
<path style="fill:currentColor" class="ColorScheme-Text" d="M 15.132812 5.644531 C 15.132812 5.917969 15.355469 6.140625 15.628906 6.140625 L 19.597656 6.140625 C 19.871094 6.140625 20.09375 5.917969 20.09375 5.644531 C 20.09375 5.371094 19.871094 5.148438 19.597656 5.148438 L 15.628906 5.148438 C 15.355469 5.148438 15.132812 5.371094 15.132812 5.644531 Z M 15.132812 5.644531 "/>
     <defs>
  <style id="current-color-scheme" type="text/css">
   .ColorScheme-Text { color:#424242; } .ColorScheme-Highlight { color:#eeeeee; }
  </style>
 </defs>
<path style="fill:currentColor" class="ColorScheme-Text" d="M 17.613281 8.125 C 17.886719 8.125 18.109375 7.902344 18.109375 7.628906 L 18.109375 3.660156 C 18.109375 3.386719 17.886719 3.164062 17.613281 3.164062 C 17.339844 3.164062 17.117188 3.386719 17.117188 3.660156 L 17.117188 7.628906 C 17.117188 7.902344 17.339844 8.125 17.613281 8.125 Z M 17.613281 8.125 "/>
</g>
</svg>
